lib/healthicons/icons/outline/typography/A.svg

<svg fill="none" height="48" viewBox="0 0 48 48" width="48" xmlns="http://www.w3.org/2000/svg"><path clip-rule="evenodd" d="m21.2306 10.8462c.4658-1.11799 1.5581-1.8462 2.7692-1.8462s2.3034.72821 2.7692 1.8462l7.4789 17.9491c.0149.0341.0292.0685.0429.1032l2.4782 5.9477c.6373 1.5294-.0859 3.2858-1.6153 3.923-1.5294.6373-3.2859-.0859-3.9231-1.6154l-1.7308-4.1538h-11l-1.7308 4.1538c-.6372 1.5295-2.3936 2.2527-3.923 1.6154-1.5294-.6372-2.2527-2.3936-1.6154-3.923l2.4782-5.9477c.0137-.0347.028-.0691.0429-.1031zm2.7692.1538c-.4037 0-.7678.2427-.9231.6154l-7.4828 17.9587-.009.021c-.0061.0138-.0119.0277-.0174.0418l-.0086.0213-2.4822 5.9572c-.2124.5098.0287 1.0953.5385 1.3077s1.0953-.0287 1.3077-.5385l1.9872-4.7692c.1552-.3727.5193-.6154.923-.6154h12.3334c.4037 0 .7678.2427.9231.6154l1.9871 4.7692c.2124.5098.7979.7509 1.3077.5385s.7509-.7979.5385-1.3077l-2.4822-5.9572-.0085-.0213c-.0031-.0078-.0062-.0155-.0095-.0232-.0026-.0062-.0052-.0124-.008-.0186l-.009-.021-7.4828-17.9587c-.1553-.3727-.5194-.6154-.9231-.6154zm0 5.2c.4037 0 .7678.2427.9231.6154l4.5 10.8c.1286.3086.0944.6611-.091.9393-.1855.2782-.4977.4453-.8321.4453h-9c-.3343 0-.6466-.1671-.832-.4453-.1855-.2782-.2197-.6307-.0911-.9393l4.5-10.8c.1553-.3727.5194-.6154.9231-.6154zm-3 10.8h6l-3-7.2z" fill="#333" fill-rule="evenodd"/></svg>

<svg width="48" height="48" viewBox="0 0 48 48" fill="none" xmlns="http://www.w3.org/2000/svg">
<path fill-rule="evenodd" clip-rule="evenodd" d="M21.2308 10.8462C21.6966 9.72821 22.7889 9 24.0001 9C25.2112 9 26.3035 9.72821 26.7693 10.8462L34.2481 28.7953C34.2631 28.8294 34.2774 28.8638 34.2911 28.8985L36.7693 34.8462C37.4065 36.3756 36.6833 38.132 35.1539 38.7692C33.6245 39.4065 31.8681 38.6833 31.2308 37.1538L29.5001 33H18.5L16.7693 37.1538C16.132 38.6833 14.3756 39.4065 12.8462 38.7692C11.3168 38.132 10.5936 36.3756 11.2308 34.8462L13.709 28.8985C13.7227 28.8638 13.7371 28.8294 13.752 28.7954L21.2308 10.8462ZM24.0001 11C23.5963 11 23.2322 11.2427 23.077 11.6154L15.5942 29.5741L15.5851 29.5951C15.579 29.6089 15.5732 29.6228 15.5677 29.6369L15.5591 29.6582L13.077 35.6154C12.8646 36.1252 13.1056 36.7107 13.6154 36.9231C14.1252 37.1355 14.7107 36.8944 14.9231 36.3846L16.9103 31.6154C17.0656 31.2427 17.4297 31 17.8334 31H30.1667C30.5704 31 30.9345 31.2427 31.0898 31.6154L33.077 36.3846C33.2894 36.8944 33.8749 37.1355 34.3847 36.9231C34.8945 36.7107 35.1355 36.1252 34.9231 35.6154L32.441 29.6582L32.4324 29.6369C32.4294 29.6291 32.4262 29.6214 32.423 29.6137C32.4204 29.6075 32.4177 29.6013 32.415 29.5951L32.4059 29.5741L24.9231 11.6154C24.7679 11.2427 24.4038 11 24.0001 11ZM24.0001 16.2C24.4038 16.2 24.7679 16.4427 24.9231 16.8154L29.4231 27.6154C29.5517 27.924 29.5176 28.2765 29.3321 28.5547C29.1466 28.8329 28.8344 29 28.5001 29H19.5001C19.1657 29 18.8535 28.8329 18.668 28.5547C18.4825 28.2765 18.4484 27.924 18.577 27.6154L23.077 16.8154C23.2322 16.4427 23.5963 16.2 24.0001 16.2ZM21.0001 27H27.0001L24.0001 19.8L21.0001 27Z" fill="#333333"/>
</svg>
